X: 0814
M: 2/4
L: 1/16
K: D
|: f>g |\
a3b afge | dcde f2e2 | edcd Adfa | g2e2e2 fg |\
a3b afge | dcde f2e2 | edcd BAGE | A2D2D2 :|

